Adwaita++/mimetypes/16/text-x-pascal.svg

<svg height="16" viewBox="0 0 16 16" width="16" xmlns="http://www.w3.org/2000/svg">
  <path d="m8.312394 0q3.151103 0 4.808149 1.33107 1.657046 1.331069 1.657046 3.88455 0 2.634974-1.657046 3.993209-1.657046 1.358234-4.808149 1.358234h-1.657046v2.689304h2.743633v2.743633h-8.17657v-2.743633h2.281833v-10.512734h-2.281833v-2.743633zm-.027165 8.095076q3.205433 0 3.205433-2.797962 0-1.303905-.787776-1.928693-.787776-.624788-2.417657-.624788h-1.602716v5.351443z" fill="#474747" fill-rule="evenodd"/>
</svg>

<svg xmlns="http://www.w3.org/2000/svg" style="isolation:isolate" width="16" height="16" viewBox="0 0 16 16">
 <defs>
  <style id="current-color-scheme" type="text/css">
   .ColorScheme-Text { color:#474747; } .ColorScheme-Highlight { color:#5294e2; }
  </style>
  <linearGradient id="arrongin" x1="0%" x2="0%" y1="0%" y2="100%">
   <stop offset="0%" style="stop-color:#dd9b44"/>
   <stop offset="100%" style="stop-color:#ad6c16"/>
  </linearGradient>
  <linearGradient id="aurora" x1="0%" x2="0%" y1="0%" y2="100%">
   <stop offset="0%" style="stop-color:#09D4DF"/>
   <stop offset="100%" style="stop-color:#9269F4"/>
  </linearGradient>
  <linearGradient id="fitdance" x1="0%" x2="0%" y1="0%" y2="100%">
   <stop offset="0%" style="stop-color:#1AD6AB"/>
   <stop offset="100%" style="stop-color:#329DB6"/>
  </linearGradient>
  <linearGradient id="oomox" x1="0%" x2="0%" y1="0%" y2="100%">
   <stop offset="0%" style="stop-color:#efefe7"/>
   <stop offset="100%" style="stop-color:#8f8f8b"/>
  </linearGradient>
  <linearGradient id="rainblue" x1="0%" x2="0%" y1="0%" y2="100%">
   <stop offset="0%" style="stop-color:#00F260"/>
   <stop offset="100%" style="stop-color:#0575E6"/>
  </linearGradient>
  <linearGradient id="sunrise" x1="0%" x2="0%" y1="0%" y2="100%">
   <stop offset="0%" style="stop-color:#FF8501"/>
   <stop offset="100%" style="stop-color:#FFCB01"/>
  </linearGradient>
  <linearGradient id="telinkrin" x1="0%" x2="0%" y1="0%" y2="100%">
   <stop offset="0%" style="stop-color:#b2ced6"/>
   <stop offset="100%" style="stop-color:#6da5b7"/>
  </linearGradient>
  <linearGradient id="60spsycho" x1="0%" x2="0%" y1="0%" y2="100%">
   <stop offset="0%" style="stop-color:#df5940"/>
   <stop offset="25%" style="stop-color:#d8d15f"/>
   <stop offset="50%" style="stop-color:#e9882a"/>
   <stop offset="100%" style="stop-color:#279362"/>
  </linearGradient>
  <linearGradient id="90ssummer" x1="0%" x2="0%" y1="0%" y2="100%">
   <stop offset="0%" style="stop-color:#f618c7"/>
   <stop offset="20%" style="stop-color:#94ffab"/>
   <stop offset="50%" style="stop-color:#fbfd54"/>
   <stop offset="100%" style="stop-color:#0f83ae"/>
  </linearGradient>
  <linearGradient id="cyberneon" x1="0%" x2="0%" y1="0%" y2="100%">
   <stop offset="0" style="stop-color:#0abdc6"/>
   <stop offset="1" style="stop-color:#ea00d9"/>
  </linearGradient>
 </defs>
 <path style="fill:currentColor" fill-rule="evenodd" class="ColorScheme-Text" d="M 8.312394 0 L 8.312394 0 Q 11.463497 0 13.120543 1.33107 L 13.120543 1.33107 L 13.120543 1.33107 Q 14.777589 2.662139 14.777589 5.21562 L 14.777589 5.21562 L 14.777589 5.21562 Q 14.777589 7.850594 13.120543 9.208829 L 13.120543 9.208829 L 13.120543 9.208829 Q 11.463497 10.567063 8.312394 10.567063 L 8.312394 10.567063 L 6.655348 10.567063 L 6.655348 13.256367 L 9.398981 13.256367 L 9.398981 16 L 1.222411 16 L 1.222411 13.256367 L 3.504244 13.256367 L 3.504244 2.743633 L 1.222411 2.743633 L 1.222411 0 L 8.312394 0 Z M 8.285229 8.095076 L 8.285229 8.095076 Q 11.490662 8.095076 11.490662 5.297114 L 11.490662 5.297114 L 11.490662 5.297114 Q 11.490662 3.993209 10.702886 3.368421 L 10.702886 3.368421 L 10.702886 3.368421 Q 9.91511 2.743633 8.285229 2.743633 L 8.285229 2.743633 L 6.682513 2.743633 L 6.682513 8.095076 L 8.285229 8.095076 Z"/>
</svg>
